!!!COM: Bach, Johann Sebastian
!!!CDT: 1685/3//-1750/7/28/
!!!OTL@@DE: Herr Jesu Christ, dich zu uns wend'
!!!AGN: 4-Part Chorale
!!!SCT: BH 136
!!!SCT: BWV 332
**harm	**root	**kern	**kern	**kern	**kern
!	!	!bass	!tenor	!alto	!soprno
*	*Iorgan	*Iorgan	*Iorgan	*Iorgan	*Iorgan
*	*	*clefF4	*clefF4	*clefG2	*clefG2
*k[b-e-]	*k[b-e-]	*k[b-e-]	*k[b-e-]	*k[b-e-]	*k[b-e-]
*B-:	*B-:	*B-:	*B-:	*B-:	*B-:
*M4/4	*M4/4	*M4/4	*M4/4	*M4/4	*M4/4
*met(c)	*met(c)	*met(c)	*met(c)	*met(c)	*met(c)
*MM60	*MM60	*MM60	*MM60	*MM60	*MM60
I	4GG	4BB-	4d	4f	4b-
=1	=1	=1	=1	=1	=1
I	4GG	4BB-	4f	4b-	4dd
Vb	4DD	4AA	4f	[4cc	4ff
I	4GG	8BB-	4f	8cc]	4dd
.	.	8D	.	4b-	.
V	4DD	4F	4f	.	4cc
.	.	.	.	8a	.
=2	=2	=2	=2	=2	=2
I	4GG	8B-	4f	4b-	4dd
.	.	8A	.	.	.
viiob/V	4CC#	4G	4g	4b-	4ee
V;	4DD;	4F;	4c;	4a;	4ff;
ii	4AA	8c	4e-	4cc	4gg
.	.	8B-	.	.	.
=3	=3	=3	=3	=3	=3
V7	4DD	4A	4f	4.cc	8ff
.	.	.	.	.	8ee-
I	4GG	4B-	4f	.	4dd
.	.	.	.	[8b-	.
V7b/V	8AA	8E	8g	8b-]	4cc
V7b/VI	8BB	8F#	4d	8a	.
vi	8EE	8G	.	8g	8b-
Vb	8DD	8A	[8c	8f	8cc
=4	=4	=4	=4	=4	=4
I	4GG	4B-	8c]	4f	4dd
.	.	.	4B-	.	.
V	4DD	4F	.	4f	4cc
.	.	.	8A	.	.
I;	4GG;	4BB-;	4d;	4f;	4b-;
V	4DD	4F	4f	4a	4cc
!!linebreak: 2
=5	=5	=5	=5	=5	=5
I	4GG	8BB-	4f	4b-	4dd
.	.	8C	.	.	.
Ib	4GG	8D	4f	4b-	4dd
.	.	8E	.	.	.
V	2DD	8F	4f	4b-	4cc
.	.	8G	.	.	.
.	.	8A	8c	4a	4ff
.	.	8d	8f	.	.
=6	=6	=6	=6	=6	=6
vi7	4EE	8B-	8d	4g	4ff
.	.	8G	8B-	.	.
V/V	4AA	8c	4c	4g	4ee
.	.	8C	.	.	.
V;	4DD;	4F;	4c;	4a;	4ff;
V7/IV	4GG	8B-	4B-	4f	4dd
.	.	8A-	.	.	.
=7	=7	=7	=7	=7	=7
IVb	4CC	8G	8B-	4g	4ee-
.	.	8Ay	8c	.	.
I	4GG	4B-	4d	8f	4dd
.	.	.	.	[8b-	.
V7b/V	8AA	8E	8g	8b-]	4cc
V7b/VI	8BB	8F#	8d	4a	.
vi	4EE	4G	4d	.	4b-
.	.	.	.	8g	.
=8	=8	=8	=8	=8	=8
Ib	4GG	8D	4d	4f	4b-
.	.	8E-	.	.	.
V	4DD	4F	4c	4f	4a
I;	4GG;	4BB-;	4d;	4f;	4b-;
==	==	==	==	==	==
*-	*-	*-	*-	*-	*-
!!chor2scor: -l 2 -s 0.6 -o %b.pmx
!!!YEC: Copyright 2003 by Craig Stuart Sapp
!!!license: GNU General Public License (http://www.gnu.org/copyleft/gpl.html)
!!!SMA: 371 Bach Chorales, edited by Ludwig Erk, C.F. Peters
!!!PDT: 1850, 1865
!!!ONB: Harmony and Root analysis done manually by Craig Sapp
